z_dist/img/icons/countries/us.svg

<svg width="33" height="24" viewBox="0 0 33 24" fill="none" xmlns="http://www.w3.org/2000/svg">
<rect width="33" height="24" rx="2" fill="white"/>
<mask id="mask0_1533_6436" style="mask-type:luminance" maskUnits="userSpaceOnUse" x="0" y="0" width="33" height="24">
<rect width="33" height="24" rx="2" fill="white"/>
</mask>
<g mask="url(#mask0_1533_6436)">
<path fill-rule="evenodd" clip-rule="evenodd" d="M33 0H0V1.6H33V0ZM33 3.2H0V4.8H33V3.2ZM0 6.4H33V8H0V6.4ZM33 9.6H0V11.2H33V9.6ZM0 12.8H33V14.4H0V12.8ZM33 16H0V17.6H33V16ZM0 19.2H33V20.8H0V19.2ZM33 22.4H0V24H33V22.4Z" fill="#D02F44"/>
<rect width="14.1429" height="11.2" fill="#46467F"/>
<g filter="url(#filter0_d_1533_6436)">
<path fill-rule="evenodd" clip-rule="evenodd" d="M3.14284 2.4C3.14284 2.84183 2.79106 3.2 2.35713 3.2C1.92319 3.2 1.57141 2.84183 1.57141 2.4C1.57141 1.95817 1.92319 1.6 2.35713 1.6C2.79106 1.6 3.14284 1.95817 3.14284 2.4ZM6.2857 2.4C6.2857 2.84183 5.93392 3.2 5.49998 3.2C5.06604 3.2 4.71427 2.84183 4.71427 2.4C4.71427 1.95817 5.06604 1.6 5.49998 1.6C5.93392 1.6 6.2857 1.95817 6.2857 2.4ZM8.64284 3.2C9.07678 3.2 9.42855 2.84183 9.42855 2.4C9.42855 1.95817 9.07678 1.6 8.64284 1.6C8.2089 1.6 7.85713 1.95817 7.85713 2.4C7.85713 2.84183 8.2089 3.2 8.64284 3.2ZM12.5714 2.4C12.5714 2.84183 12.2196 3.2 11.7857 3.2C11.3518 3.2 11 2.84183 11 2.4C11 1.95817 11.3518 1.6 11.7857 1.6C12.2196 1.6 12.5714 1.95817 12.5714 2.4ZM3.92855 4.8C4.36249 4.8 4.71427 4.44183 4.71427 4C4.71427 3.55817 4.36249 3.2 3.92855 3.2C3.49462 3.2 3.14284 3.55817 3.14284 4C3.14284 4.44183 3.49462 4.8 3.92855 4.8ZM7.85713 4C7.85713 4.44183 7.50535 4.8 7.07141 4.8C6.63747 4.8 6.2857 4.44183 6.2857 4C6.2857 3.55817 6.63747 3.2 7.07141 3.2C7.50535 3.2 7.85713 3.55817 7.85713 4ZM10.2143 4.8C10.6482 4.8 11 4.44183 11 4C11 3.55817 10.6482 3.2 10.2143 3.2C9.78033 3.2 9.42855 3.55817 9.42855 4C9.42855 4.44183 9.78033 4.8 10.2143 4.8ZM12.5714 5.6C12.5714 6.04183 12.2196 6.4 11.7857 6.4C11.3518 6.4 11 6.04183 11 5.6C11 5.15817 11.3518 4.8 11.7857 4.8C12.2196 4.8 12.5714 5.15817 12.5714 5.6ZM8.64284 6.4C9.07678 6.4 9.42855 6.04183 9.42855 5.6C9.42855 5.15817 9.07678 4.8 8.64284 4.8C8.2089 4.8 7.85713 5.15817 7.85713 5.6C7.85713 6.04183 8.2089 6.4 8.64284 6.4ZM6.2857 5.6C6.2857 6.04183 5.93392 6.4 5.49998 6.4C5.06604 6.4 4.71427 6.04183 4.71427 5.6C4.71427 5.15817 5.06604 4.8 5.49998 4.8C5.93392 4.8 6.2857 5.15817 6.2857 5.6ZM2.35713 6.4C2.79106 6.4 3.14284 6.04183 3.14284 5.6C3.14284 5.15817 2.79106 4.8 2.35713 4.8C1.92319 4.8 1.57141 5.15817 1.57141 5.6C1.57141 6.04183 1.92319 6.4 2.35713 6.4ZM4.71427 7.2C4.71427 7.64183 4.36249 8 3.92855 8C3.49462 8 3.14284 7.64183 3.14284 7.2C3.14284 6.75817 3.49462 6.4 3.92855 6.4C4.36249 6.4 4.71427 6.75817 4.71427 7.2ZM7.07141 8C7.50535 8 7.85713 7.64183 7.85713 7.2C7.85713 6.75817 7.50535 6.4 7.07141 6.4C6.63747 6.4 6.2857 6.75817 6.2857 7.2C6.2857 7.64183 6.63747 8 7.07141 8ZM11 7.2C11 7.64183 10.6482 8 10.2143 8C9.78033 8 9.42855 7.64183 9.42855 7.2C9.42855 6.75817 9.78033 6.4 10.2143 6.4C10.6482 6.4 11 6.75817 11 7.2ZM11.7857 9.6C12.2196 9.6 12.5714 9.24183 12.5714 8.8C12.5714 8.35817 12.2196 8 11.7857 8C11.3518 8 11 8.35817 11 8.8C11 9.24183 11.3518 9.6 11.7857 9.6ZM9.42855 8.8C9.42855 9.24183 9.07678 9.6 8.64284 9.6C8.2089 9.6 7.85713 9.24183 7.85713 8.8C7.85713 8.35817 8.2089 8 8.64284 8C9.07678 8 9.42855 8.35817 9.42855 8.8ZM5.49998 9.6C5.93392 9.6 6.2857 9.24183 6.2857 8.8C6.2857 8.35817 5.93392 8 5.49998 8C5.06604 8 4.71427 8.35817 4.71427 8.8C4.71427 9.24183 5.06604 9.6 5.49998 9.6ZM3.14284 8.8C3.14284 9.24183 2.79106 9.6 2.35713 9.6C1.92319 9.6 1.57141 9.24183 1.57141 8.8C1.57141 8.35817 1.92319 8 2.35713 8C2.79106 8 3.14284 8.35817 3.14284 8.8Z" fill="url(#paint0_linear_1533_6436)"/>
</g>
</g>
<defs>
<filter id="filter0_d_1533_6436" x="1.57141" y="1.6" width="11" height="9" filterUnits="userSpaceOnUse" color-interpolation-filters="sRGB">
<feFlood flood-opacity="0" result="BackgroundImageFix"/>
<feColorMatrix in="SourceAlpha" type="matrix" values="0 0 0 0 0 0 0 0 0 0 0 0 0 0 0 0 0 0 127 0" result="hardAlpha"/>
<feOffset dy="1"/>
<feColorMatrix type="matrix" values="0 0 0 0 0 0 0 0 0 0 0 0 0 0 0 0 0 0 0.06 0"/>
<feBlend mode="normal" in2="BackgroundImageFix" result="effect1_dropShadow_1533_6436"/>
<feBlend mode="normal" in="SourceGraphic" in2="effect1_dropShadow_1533_6436" result="shape"/>
</filter>
<linearGradient id="paint0_linear_1533_6436" x1="1.57141" y1="1.6" x2="1.57141" y2="9.6" gradientUnits="userSpaceOnUse">
<stop stop-color="white"/>
<stop offset="1" stop-color="#F0F0F0"/>
</linearGradient>
</defs>
</svg>

<svg width="33" height="24" fill="none" xmlns="http://www.w3.org/2000/svg"><rect width="33" height="24" rx="2" fill="#fff"/><mask id="a" style="mask-type:luminance" maskUnits="userSpaceOnUse" x="0" y="0" width="33" height="24"><rect width="33" height="24" rx="2" fill="#fff"/></mask><g mask="url(#a)"><path fill-rule="evenodd" clip-rule="evenodd" d="M33 0H0v1.6h33V0zm0 3.2H0v1.6h33V3.2zM0 6.4h33V8H0V6.4zm33 3.2H0v1.6h33V9.6zM0 12.8h33v1.6H0v-1.6zM33 16H0v1.6h33V16zM0 19.2h33v1.6H0v-1.6zm33 3.2H0V24h33v-1.6z" fill="#D02F44"/><path fill="#46467F" d="M0 0h14.143v11.2H0z"/><g filter="url(#filter0_d_1533_6436)"><path fill-rule="evenodd" clip-rule="evenodd" d="M3.143 2.4c0 .442-.352.8-.786.8a.793.793 0 01-.786-.8c0-.442.352-.8.786-.8.434 0 .786.358.786.8zm3.143 0c0 .442-.352.8-.786.8a.793.793 0 01-.786-.8c0-.442.352-.8.786-.8.434 0 .786.358.786.8zm2.357.8a.793.793 0 00.786-.8c0-.442-.352-.8-.786-.8a.793.793 0 00-.786.8c0 .442.352.8.786.8zm3.928-.8c0 .442-.351.8-.785.8A.793.793 0 0111 2.4c0-.442.352-.8.786-.8.434 0 .785.358.785.8zM3.93 4.8a.793.793 0 00.785-.8c0-.442-.352-.8-.785-.8a.793.793 0 00-.786.8c0 .442.352.8.786.8zM7.857 4c0 .442-.352.8-.786.8a.793.793 0 01-.785-.8c0-.442.351-.8.785-.8.434 0 .786.358.786.8zm2.357.8A.793.793 0 0011 4c0-.442-.352-.8-.786-.8a.793.793 0 00-.785.8c0 .442.351.8.785.8zm2.357.8c0 .442-.351.8-.785.8A.793.793 0 0111 5.6c0-.442.352-.8.786-.8.434 0 .785.358.785.8zm-3.928.8a.793.793 0 00.786-.8c0-.442-.352-.8-.786-.8a.793.793 0 00-.786.8c0 .442.352.8.786.8zm-2.357-.8c0 .442-.352.8-.786.8a.793.793 0 01-.786-.8c0-.442.352-.8.786-.8.434 0 .786.358.786.8zm-3.929.8a.793.793 0 00.786-.8c0-.442-.352-.8-.786-.8a.793.793 0 00-.786.8c0 .442.352.8.786.8zm2.357.8c0 .442-.352.8-.785.8a.793.793 0 01-.786-.8c0-.442.352-.8.786-.8.433 0 .785.358.785.8zm2.357.8a.793.793 0 00.786-.8c0-.442-.352-.8-.786-.8a.793.793 0 00-.785.8c0 .442.351.8.785.8zM11 7.2c0 .442-.352.8-.786.8a.793.793 0 01-.785-.8c0-.442.351-.8.785-.8.434 0 .786.358.786.8zm.786 2.4a.793.793 0 00.785-.8c0-.442-.351-.8-.785-.8a.793.793 0 00-.786.8c0 .442.352.8.786.8zm-2.357-.8c0 .442-.352.8-.786.8a.793.793 0 01-.786-.8c0-.442.352-.8.786-.8.434 0 .786.358.786.8zM5.5 9.6a.793.793 0 00.786-.8c0-.442-.352-.8-.786-.8a.793.793 0 00-.786.8c0 .442.352.8.786.8zm-2.357-.8c0 .442-.352.8-.786.8a.793.793 0 01-.786-.8c0-.442.352-.8.786-.8.434 0 .786.358.786.8z" fill="url(#paint0_linear_1533_6436)"/></g></g><defs><linearGradient id="paint0_linear_1533_6436" x1="1.571" y1="1.6" x2="1.571" y2="9.6" gradientUnits="userSpaceOnUse"><stop stop-color="#fff"/><stop offset="1" stop-color="#F0F0F0"/></linearGradient><filter id="filter0_d_1533_6436" x="1.571" y="1.6" width="11" height="9" filterUnits="userSpaceOnUse" color-interpolation-filters="sRGB"><feFlood flood-opacity="0" result="BackgroundImageFix"/><feColorMatrix in="SourceAlpha" values="0 0 0 0 0 0 0 0 0 0 0 0 0 0 0 0 0 0 127 0" result="hardAlpha"/><feOffset dy="1"/><feColorMatrix values="0 0 0 0 0 0 0 0 0 0 0 0 0 0 0 0 0 0 0.06 0"/><feBlend in2="BackgroundImageFix" result="effect1_dropShadow_1533_6436"/><feBlend in="SourceGraphic" in2="effect1_dropShadow_1533_6436" result="shape"/></filter></defs></svg>
